src/assets/icon/company/Percona.svg

<svg width="200" height="80" viewBox="0 0 200 80" fill="none" xmlns="http://www.w3.org/2000/svg">
<path d="M34.7894 42.6051C37.2498 40.9968 38.0548 37.7164 36.5659 35.1381C35.8199 33.8448 34.6139 32.9187 33.1712 32.5319C31.8345 32.1731 30.4384 32.3198 29.2096 32.9406L27.5318 30.0364L24.0494 36.0679L16 50.008H39.0638L34.7894 42.6051ZM32.7766 34.0094C33.8254 34.2887 34.698 34.9621 35.2416 35.8997C36.3099 37.7479 35.7549 40.0922 34.0224 41.2761L29.9757 34.2681C30.8475 33.8489 31.8309 33.7575 32.7766 34.0094ZM27.5318 33.0974L36.4114 48.4771H31.2159L24.933 37.5984L27.5318 33.0974ZM18.6523 48.4771L24.0489 39.1321L29.4455 48.4771H18.6523Z" fill="white"/>
<path d="M34.807 42.5687C37.2674 40.9604 38.0724 37.68 36.5835 35.1017C35.8374 33.8085 34.6315 32.8823 33.1888 32.4955C31.8521 32.1367 30.456 32.2834 29.2271 32.9042L27.5495 30L24.0669 36.0315L16.0176 49.9716H39.0813L34.807 42.5687ZM32.7943 33.973C33.8429 34.2523 34.7156 34.9257 35.2591 35.8633C36.3275 37.7115 35.7726 40.0557 34.0399 41.2398L29.9934 34.2318C30.8651 33.8126 31.8484 33.7211 32.7943 33.973ZM27.5495 33.061L36.4289 48.4407H31.2336L24.9506 37.562L27.5495 33.061ZM18.6699 48.4407L24.0665 39.0958L29.463 48.4407H18.6699Z" fill="white"/>
<path d="M54.3726 44.1639H51.1232V49.9783H46.8457V30.5897H54.7934C59.4333 30.5897 62.2399 33.3298 62.2399 37.2924V37.3453C62.2399 41.833 58.7407 44.1588 54.3778 44.1588L54.3726 44.1639ZM57.8992 37.3777C57.8992 35.4663 56.5669 34.4415 54.4256 34.4415H51.118V40.3667H54.506C56.6473 40.3667 57.8941 39.0913 57.8941 37.4305V37.3777H57.8992Z" fill="white"/>
<path d="M64.627 49.98V30.5897H79.2976V34.387H68.8787V38.3223H78.0458V42.1195H68.8787V46.193H79.4362V49.9902H64.627V49.98Z" fill="white"/>
<path d="M94.5914 49.98L90.4251 43.7768H87.0645V49.98H82.7871V30.5897H91.6771C96.264 30.5897 99.0125 33.0007 99.0125 36.9889V37.0418C99.0125 40.1706 97.3193 42.14 94.8462 43.0539L99.5974 49.9783H94.5897L94.5914 49.98ZM94.6769 37.2123C94.6769 35.3861 93.3976 34.4398 91.3162 34.4398H87.0661V40.007H91.4017C93.4849 40.007 94.6769 38.8969 94.6769 37.2668V37.214V37.2123Z" fill="white"/>
<path d="M111.276 50.5012C105.478 50.5012 101.17 46.0391 101.17 40.3935V40.339C101.17 34.7531 105.391 30.1783 111.449 30.1783C115.164 30.1783 117.392 31.4111 119.221 33.2083L116.463 36.378C114.941 35.0003 113.397 34.1614 111.421 34.1614C108.102 34.1614 105.704 36.9117 105.704 40.281V40.3356C105.704 43.7048 108.042 46.508 111.421 46.508C113.672 46.508 115.054 45.6094 116.604 44.2044L119.362 46.982C117.332 49.1457 115.081 50.4911 111.282 50.4911L111.276 50.5012Z" fill="white"/>
<path d="M130.803 50.5012C124.72 50.5012 120.357 45.9811 120.357 40.3935V40.339C120.357 34.7531 124.778 30.1783 130.856 30.1783C136.935 30.1783 141.303 34.6985 141.303 40.2861V40.3407C141.303 45.9265 136.881 50.5012 130.803 50.5012ZM136.774 40.3407C136.774 36.9714 134.296 34.1682 130.803 34.1682C127.311 34.1682 124.893 36.9186 124.893 40.2878V40.3423C124.893 43.7116 127.371 46.5148 130.863 46.5148C134.356 46.5148 136.774 43.7644 136.774 40.3953V40.3407Z" fill="white"/>
<path d="M164.857 49.9983L174.429 30.1783L183.999 50H179.2L174.429 40.1361L169.674 50H164.857V49.9983Z" fill="white"/>
<path d="M163.087 30.5995V50.503L148.492 38.7174V49.9659H143.951V30.1783L158.547 41.9179V30.5995H163.087Z" fill="white"/>
</svg>

<svg width="200" height="80" fill="none" xmlns="http://www.w3.org/2000/svg"><path d="M34.79 42.605a5.591 5.591 0 0 0-1.619-10.073 5.55 5.55 0 0 0-3.961.409l-1.678-2.905-3.483 6.032L16 50.008h23.064l-4.275-7.403Zm-2.013-8.596a4.06 4.06 0 0 1 1.246 7.267l-4.047-7.008a4.033 4.033 0 0 1 2.8-.259Zm-5.245-.912 8.88 15.38h-5.196l-6.283-10.879 2.599-4.5Zm-8.88 15.38 5.397-9.345 5.396 9.345H18.652Z" fill="#fff"/><path d="M34.807 42.569a5.591 5.591 0 0 0-1.618-10.074 5.55 5.55 0 0 0-3.962.41L27.55 30l-3.482 6.032-8.05 13.94h23.064l-4.274-7.403Zm-2.013-8.596a4.06 4.06 0 0 1 1.246 7.267l-4.047-7.008a4.033 4.033 0 0 1 2.801-.259Zm-5.244-.912 8.879 15.38h-5.195L24.95 37.562l2.598-4.501Zm-8.88 15.38 5.396-9.345 5.397 9.345H18.67ZM54.373 44.164h-3.25v5.814h-4.277V30.59h7.947c4.64 0 7.447 2.74 7.447 6.702v.053c0 4.488-3.5 6.814-7.862 6.814l-.005.005Zm3.526-6.786c0-1.912-1.332-2.937-3.473-2.937h-3.308v5.926h3.388c2.141 0 3.388-1.276 3.388-2.936v-.053h.005ZM64.627 49.98V30.59h14.67v3.797H68.88v3.935h9.167v3.797h-9.167v4.074h10.557v3.797H64.627v-.01ZM94.591 49.98l-4.166-6.203h-3.36v6.203h-4.278V30.59h8.89c4.587 0 7.335 2.41 7.335 6.399v.053c0 3.129-1.693 5.098-4.166 6.012l4.751 6.924H94.59l.001.002Zm.086-12.768c0-1.826-1.28-2.772-3.36-2.772h-4.25v5.567h4.335c2.083 0 3.275-1.11 3.275-2.74v-.055ZM111.276 50.501c-5.798 0-10.106-4.462-10.106-10.107v-.055c0-5.586 4.221-10.16 10.279-10.16 3.715 0 5.943 1.232 7.772 3.03l-2.758 3.169c-1.522-1.378-3.066-2.217-5.042-2.217-3.319 0-5.717 2.75-5.717 6.12v.055c0 3.369 2.338 6.172 5.717 6.172 2.251 0 3.633-.899 5.183-2.304l2.758 2.778c-2.03 2.164-4.281 3.51-8.08 3.51l-.006.01ZM130.803 50.501c-6.083 0-10.446-4.52-10.446-10.107v-.055c0-5.586 4.421-10.16 10.499-10.16 6.079 0 10.447 4.52 10.447 10.107v.055c0 5.585-4.422 10.16-10.5 10.16Zm5.971-10.16c0-3.37-2.478-6.173-5.971-6.173-3.492 0-5.91 2.75-5.91 6.12v.054c0 3.37 2.478 6.173 5.97 6.173 3.493 0 5.911-2.75 5.911-6.12v-.054ZM164.857 49.998l9.572-19.82L183.999 50H179.2l-4.771-9.864L169.674 50h-4.817v-.002ZM163.087 30.6v19.903l-14.595-11.786v11.249h-4.541V30.178l14.596 11.74V30.599h4.54Z" fill="#fff"/></svg>
